X:125
T:Hambo
R:waltz 32
C:Trad. Danish
M:3/4
L:1/8
Q:3/4=60
K:D
FA d[|"D"f2fe "G"dB|"D"A3F Ad|"Bm"f>g fe dc|"G"B3G Bd|\
"Em"g2gf ed|"A"c2cA cA|"G"B2 BG BG|"D"A3F Ad|
"D"f2fe "G"dB|"D"A3F Ad|"Bm"f>g fe dc|"G"B3G Bd|\
"Em"g2gf ed|"A"c2 (3cAc e2|c2 (3cAc e2|"D"d4 "G"B2|]|
"D"A2 (3AFA d2|"C"A2 (3AFA dA|"G"B2 (3BGB d2|"Bm"B2 (3BGB d2|\
"A"c2 (3cAc e2|"Em"c2 (3cAc e2|"D"dd "G"df "A"af|"D"d4 "G"B2|
"D"A2 (3AFA d2|"C"A2 (3AFA dA|"G"B2 (3BGB d2|"Bm"B2 (3BGB d2|\
"A"c2 (3cAc e2|"Em"c2 (3cAc e2|"D"dd "G"df "A"af|"D"d3 F"G"A d|]

